modules/material-icons/icons/language-javascript.svg

<svg xmlns="http://www.w3.org/2000/svg" width="24" height="24" viewBox="0 0 24 24"><path d="M3 3h18v18H3V3m4.73 15.04c.4.85 1.19 1.55 2.54 1.55 1.5 0 2.53-.8 2.53-2.55v-5.78h-1.7V17c0 .86-.35 1.08-.9 1.08-.58 0-.82-.4-1.09-.87l-1.38.83m5.98-.18c.5.98 1.51 1.73 3.09 1.73 1.6 0 2.8-.83 2.8-2.36 0-1.41-.81-2.04-2.25-2.66l-.42-.18c-.73-.31-1.04-.52-1.04-1.02 0-.41.31-.73.81-.73.48 0 .8.21 1.09.73l1.31-.87c-.55-.96-1.33-1.33-2.4-1.33-1.51 0-2.48.96-2.48 2.23 0 1.38.81 2.03 2.03 2.55l.42.18c.78.34 1.24.55 1.24 1.13 0 .48-.45.83-1.15.83-.83 0-1.31-.43-1.67-1.03l-1.38.8z"/></svg>

<?xml version="1.0" encoding="UTF-8"?><!DOCTYPE svg PUBLIC "-//W3C//DTD SVG 1.1//EN" "http://www.w3.org/Graphics/SVG/1.1/DTD/svg11.dtd"><svg xmlns="http://www.w3.org/2000/svg" xmlns:xlink="http://www.w3.org/1999/xlink" version="1.1" width="24" height="24" viewBox="0 0 24 24"><path d="M3,3H21V21H3V3M7.73,18.04C8.13,18.89 8.92,19.59 10.27,19.59C11.77,19.59 12.8,18.79 12.8,17.04V11.26H11.1V17C11.1,17.86 10.75,18.08 10.2,18.08C9.62,18.08 9.38,17.68 9.11,17.21L7.73,18.04M13.71,17.86C14.21,18.84 15.22,19.59 16.8,19.59C18.4,19.59 19.6,18.76 19.6,17.23C19.6,15.82 18.79,15.19 17.35,14.57L16.93,14.39C16.2,14.08 15.89,13.87 15.89,13.37C15.89,12.96 16.2,12.64 16.7,12.64C17.18,12.64 17.5,12.85 17.79,13.37L19.1,12.5C18.55,11.54 17.77,11.17 16.7,11.17C15.19,11.17 14.22,12.13 14.22,13.4C14.22,14.78 15.03,15.43 16.25,15.95L16.67,16.13C17.45,16.47 17.91,16.68 17.91,17.26C17.91,17.74 17.46,18.09 16.76,18.09C15.93,18.09 15.45,17.66 15.09,17.06L13.71,17.86Z" /></svg>
